X: 1245
T: Bell Tune (The)
B: australian traditional tunes wiki
M:4/4
L:1/8
R: March
Q: 1/4=100
K:D
V:1 
"D"f>^ef[BdF] d>cd[BF]|A>B AF DzD2|"A7"CEEF G2FE|"D"D>E FBA4|
"D"f>^ef[BdF] d>cd[BF]|A>B AF DzD2|"A7"CEEF GABc|"D"d>c "A7"de "D"d3B|
"D"A>B AF A>B AF|A>B AF DzD2|"A7"CEEFG2FE|"D"D>E FBA3F/2G/2|
"D"f>^ef[BdF] d>cd[BF]|A>B AF DzD2|"A7"CEEF GABc|"D"d>c "A7"de "D"d3B|
% abcbook-tune_id 6342d53a1b6e3df4ce2d6047


% abcbook-boost 0
% abcbook-tablature 
% abcbook-transpose 
% abcbook-lastupdated 1665324355777
% abcbook-soundfonts 
% abcbook-repeats 1
% NFF Book 2019
% Bush Traditions recording played by Ray Mulligan

